SVG_Azure_All/Universal Print Service.svg

<?xml version="1.0" encoding="UTF-8" standalone="no"?>
<!-- Generated by Microsoft Visio, SVG Export Universal Print Service.svg Page-1 -->

<svg
   xmlns:dc="http://purl.org/dc/elements/1.1/"
   xmlns:cc="http://creativecommons.org/ns#"
   xmlns:rdf="http://www.w3.org/1999/02/22-rdf-syntax-ns#"
   xmlns:svg="http://www.w3.org/2000/svg"
   xmlns="http://www.w3.org/2000/svg"
   xmlns:sodipodi="http://sodipodi.sourceforge.net/DTD/sodipodi-0.dtd"
   xmlns:inkscape="http://www.inkscape.org/namespaces/inkscape"
   width="0.78742301in"
   height="0.6694786in"
   viewBox="0 0 56.694512 48.20239"
   xml:space="preserve"
   class="st9"
   version="1.1"
   id="svg70"
   sodipodi:docname="Universal Print Service.svg"
   style="font-size:12px;overflow:visible;color-interpolation-filters:sRGB;fill:none;fill-rule:evenodd;stroke-linecap:square;stroke-miterlimit:3"
   inkscape:version="0.92.5 (2060ec1f9f, 2020-04-08)"><metadata
   id="metadata74"><rdf:RDF><cc:Work
       rdf:about=""><dc:format>image/svg+xml</dc:format><dc:type
         rdf:resource="http://purl.org/dc/dcmitype/StillImage" /></cc:Work></rdf:RDF></metadata><sodipodi:namedview
   pagecolor="#ffffff"
   bordercolor="#666666"
   borderopacity="1"
   objecttolerance="10"
   gridtolerance="10"
   guidetolerance="10"
   inkscape:pageopacity="0"
   inkscape:pageshadow="2"
   inkscape:window-width="640"
   inkscape:window-height="480"
   id="namedview72"
   showgrid="false"
   inkscape:zoom="1.5393156"
   inkscape:cx="37.795565"
   inkscape:cy="31.308367"
   inkscape:window-x="0"
   inkscape:window-y="0"
   inkscape:window-maximized="0"
   inkscape:current-layer="svg70" />
	<style
   type="text/css"
   id="style2">
	<![CDATA[
		.st1 {fill:url(#grad0-6);stroke:none;stroke-linecap:butt;stroke-width:32.7738}
		.st2 {fill:#005ba1;stroke:none;stroke-linecap:butt;stroke-width:32.7738}
		.st3 {fill:url(#grad0-12);stroke:none;stroke-linecap:butt;stroke-width:32.7738}
		.st4 {fill:#5ea0ef;stroke:none;stroke-linecap:butt;stroke-width:32.7738}
		.st5 {fill:#0078d4;stroke:none;stroke-linecap:butt;stroke-width:32.7738}
		.st6 {fill:#83b9f9;stroke:none;stroke-linecap:butt;stroke-width:32.7738}
		.st7 {fill:#c3f1ff;stroke:none;stroke-linecap:butt;stroke-width:32.7738}
		.st8 {fill:url(#grad0-24);stroke:none;stroke-linecap:butt;stroke-width:32.7738}
		.st9 {fill:none;fill-rule:evenodd;font-size:12px;overflow:visible;stroke-linecap:square;stroke-miterlimit:3}
	]]>
	</style>

	<defs
   id="Patterns_And_Gradients">
		<linearGradient
   id="grad0-6"
   x1="0"
   y1="88.700734"
   x2="47.739515"
   y2="88.700734"
   gradientTransform="scale(1.1864385,0.84285867)"
   gradientUnits="userSpaceOnUse">
			<stop
   offset="0"
   stop-color="#773adc"
   stop-opacity="1"
   id="stop4" />
			<stop
   offset="0.815"
   stop-color="#a67af4"
   stop-opacity="1"
   id="stop6" />
		</linearGradient>
		<linearGradient
   id="grad0-12"
   x1="-0.0042415976"
   y1="112.18616"
   x2="20.160953"
   y2="112.18616"
   gradientTransform="scale(1.1509814,0.86882376)"
   gradientUnits="userSpaceOnUse">
			<stop
   offset="0"
   stop-color="#c3f1ff"
   stop-opacity="1"
   id="stop9" />
			<stop
   offset="1"
   stop-color="#9cebff"
   stop-opacity="1"
   id="stop11" />
		</linearGradient>
		<linearGradient
   id="grad0-24"
   x1="-0.0036561165"
   y1="136.1602"
   x2="17.381906"
   y2="136.1602"
   gradientTransform="scale(1.3352966,0.74889728)"
   gradientUnits="userSpaceOnUse">
			<stop
   offset="0"
   stop-color="#c3f1ff"
   stop-opacity="1"
   id="stop14" />
			<stop
   offset="1"
   stop-color="#9cebff"
   stop-opacity="1"
   id="stop16" />
		</linearGradient>
	</defs>
	<g
   id="g68"
   transform="translate(-32.7738,-32.77193)">
		<title
   id="title20">Page-1</title>
		<g
   id="group697-1"
   transform="translate(32.7738,-34.0157)">
			<title
   id="title22">Universal Print Service</title>
			<g
   id="group698-2">
				<title
   id="title24">afb37d11-6e90-4ac0-b9c9-249fa60</title>
				<g
   id="shape699-3"
   transform="translate(0,-7.97469)">
					<title
   id="title26">path19</title>
					<path
   d="m 56.64,102.39 c 0,-2.58 -3.76,-3.43 -5.21,-5.41 -1.99,-2.74 -2.2,-6.24 -5.84,-6.84 A 16.0346,16.0661 -180 0 0 29.07,74.77 16.4567,16.489 -180 0 0 13.35,85.5 15.1874,15.2172 -180 0 0 0,100.15 15.411,15.4413 -180 0 0 15.95,114.99 c 0.47,0 0.94,-0.03 1.4,-0.06 h 25.83 a 2.55433,2.55935 -180 0 0 0.68,-0.1 12.8787,12.904 -180 0 0 12.78,-12.44 z"
   class="st1"
   id="path28"
   inkscape:connector-curvature="0"
   style="fill:url(#grad0-6);stroke:none;stroke-width:32.7737999;stroke-linecap:butt" />
				</g>
				<g
   id="shape700-7"
   transform="translate(24.1386,-20.2066)">
					<title
   id="title31">rect21</title>
					<path
   d="m 0,114.04 a 0.944904,0.94676 -180 0 0 0.944882,0.94674 L 27.96,114.99 a 0.944904,0.94676 -180 0 0 0.944882,-0.94674 L 28.91,104.32 a 0.944904,0.94676 -180 0 0 -0.944882,-0.94674 L 0.94,103.38 a 0.944904,0.94676 -180 0 0 -0.944882,0.94674 z"
   class="st2"
   id="path33"
   inkscape:connector-curvature="0"
   style="fill:#005ba1;stroke:none;stroke-width:32.7737999;stroke-linecap:butt" />
				</g>
				<g
   id="shape701-9"
   transform="translate(26.9921,-21.5825)">
					<title
   id="title36">rect23</title>
					<path
   d="m 0,114.04 a 0.944904,0.94676 -180 0 0 0.944882,0.94674 L 22.26,114.99 a 0.944904,0.94676 -180 0 0 0.944882,-0.94674 L 23.2,98.42 A 0.944904,0.94676 -180 0 0 22.255118,97.473262 L 0.94,97.47 a 0.944904,0.94676 -180 0 0 -0.944882,0.946738 z"
   class="st3"
   id="path38"
   inkscape:connector-curvature="0"
   style="fill:url(#grad0-12);stroke:none;stroke-width:32.7737999;stroke-linecap:butt" />
				</g>
				<g
   id="shape702-13"
   transform="translate(20.4945,-5.53842)">
					<title
   id="title41">path25</title>
					<path
   d="m 1.89,93.84 h 32.42 a 1.88976,1.89348 0 0 1 1.89,1.9 v 19.25 H 0 V 95.74 a 1.88976,1.89348 0 0 1 1.89,-1.9 z"
   class="st4"
   id="path43"
   inkscape:connector-curvature="0"
   style="fill:#5ea0ef;stroke:none;stroke-width:32.7737999;stroke-linecap:butt" />
				</g>
				<g
   id="shape703-15"
   transform="translate(20.4945,-4.80312)">
					<title
   id="title46">rect27</title>
					<rect
   x="0"
   y="111.767"
   width="36.198399"
   height="3.21891"
   class="st5"
   id="rect48"
   style="fill:#0078d4;stroke:none;stroke-width:32.7737999;stroke-linecap:butt" />
				</g>
				<g
   id="shape704-17"
   transform="translate(25.1874,-9.90288)">
					<title
   id="title51">rect29</title>
					<path
   d="m 0,114.04 a 0.944904,0.94676 -180 0 0 0.944882,0.94674 L 25.86,114.99 a 0.944904,0.94676 -180 0 0 0.944882,-0.94674 L 26.8,112.17 a 0.944904,0.94676 -180 0 0 -0.944882,-0.94674 L 0.94,111.22 a 0.944904,0.94676 -180 0 0 -0.944882,0.94674 z"
   class="st6"
   id="path53"
   inkscape:connector-curvature="0"
   style="fill:#83b9f9;stroke:none;stroke-width:32.7737999;stroke-linecap:butt" />
				</g>
				<g
   id="shape705-19"
   transform="translate(49.6378,-19.7805)">
					<title
   id="title56">circle31</title>
					<ellipse
   cx="0.89763802"
   cy="114.087"
   rx="0.89763802"
   ry="0.89940101"
   class="st7"
   id="ellipse58"
   style="fill:#c3f1ff;stroke:none;stroke-width:32.7737999;stroke-linecap:butt" />
				</g>
				<g
   id="shape706-21"
   transform="translate(26.989)">
					<title
   id="title61">path33</title>
					<path
   d="m 0,101.97 h 23.21 v 12.07 a 0.944882,0.946738 0 0 1 -0.944882,0.94674 L 0.94,114.99 a 0.944882,0.946738 0 0 1 -0.944882,-0.94674 z"
   class="st8"
   id="path63"
   inkscape:connector-curvature="0"
   style="fill:url(#grad0-24);stroke:none;stroke-width:32.7737999;stroke-linecap:butt" />
				</g>
			</g>
		</g>
	</g>
</svg>

<?xml version="1.0" encoding="UTF-8" standalone="no"?>
<!DOCTYPE svg PUBLIC "-//W3C//DTD SVG 1.1//EN" "http://www.w3.org/Graphics/SVG/1.1/DTD/svg11.dtd">
<!-- Generated by Microsoft Visio, SVG Export Universal Print Service.svg Page-1 -->
<svg xmlns="http://www.w3.org/2000/svg" xmlns:xlink="http://www.w3.org/1999/xlink" xmlns:ev="http://www.w3.org/2001/xml-events"
		width="1.69779in" height="1.59703in" viewBox="0 0 122.241 114.986" xml:space="preserve" color-interpolation-filters="sRGB"
		class="st9">
	<style type="text/css">
	<![CDATA[
		.st1 {fill:url(#grad0-6);stroke:none;stroke-linecap:butt;stroke-width:32.7738}
		.st2 {fill:#005ba1;stroke:none;stroke-linecap:butt;stroke-width:32.7738}
		.st3 {fill:url(#grad0-12);stroke:none;stroke-linecap:butt;stroke-width:32.7738}
		.st4 {fill:#5ea0ef;stroke:none;stroke-linecap:butt;stroke-width:32.7738}
		.st5 {fill:#0078d4;stroke:none;stroke-linecap:butt;stroke-width:32.7738}
		.st6 {fill:#83b9f9;stroke:none;stroke-linecap:butt;stroke-width:32.7738}
		.st7 {fill:#c3f1ff;stroke:none;stroke-linecap:butt;stroke-width:32.7738}
		.st8 {fill:url(#grad0-24);stroke:none;stroke-linecap:butt;stroke-width:32.7738}
		.st9 {fill:none;fill-rule:evenodd;font-size:12px;overflow:visible;stroke-linecap:square;stroke-miterlimit:3}
	]]>
	</style>

	<defs id="Patterns_And_Gradients">
		<linearGradient id="grad0-6" x1="0" y1="0" x2="1" y2="0" gradientTransform="rotate(-90 0.5 0.5)">
			<stop offset="0" stop-color="#773adc" stop-opacity="1"/>
			<stop offset="0.815" stop-color="#a67af4" stop-opacity="1"/>
		</linearGradient>
		<linearGradient id="grad0-12" x1="0" y1="0" x2="1" y2="0" gradientTransform="rotate(90 0.5 0.5)">
			<stop offset="0" stop-color="#c3f1ff" stop-opacity="1"/>
			<stop offset="1" stop-color="#9cebff" stop-opacity="1"/>
		</linearGradient>
		<linearGradient id="grad0-24" x1="0" y1="0" x2="1" y2="0" gradientTransform="rotate(-90 0.5 0.5)">
			<stop offset="0" stop-color="#c3f1ff" stop-opacity="1"/>
			<stop offset="1" stop-color="#9cebff" stop-opacity="1"/>
		</linearGradient>
	</defs>
	<g>
		<title>Page-1</title>
		<g id="group682-1" transform="translate(32.7738,-34.0157)">
			<title>Universal Print Service</title>
			<g id="group683-2">
				<title>afb37d11-6e90-4ac0-b9c9-249fa60</title>
				<g id="shape684-3" transform="translate(0,-7.97469)">
					<title>path19</title>
					<path d="M56.64 102.39 C56.64 99.81 52.88 98.96 51.43 96.98 C49.44 94.24 49.23 90.74 45.59 90.14 A16.0346 16.0661
								 -180 0 0 29.07 74.77 A16.4567 16.489 -180 0 0 13.35 85.5 A15.1874 15.2172 -180 0 0 -0 100.15 A15.411
								 15.4413 -180 0 0 15.95 114.99 C16.42 114.99 16.89 114.96 17.35 114.93 L43.18 114.93 A2.55433 2.55935
								 -180 0 0 43.86 114.83 A12.8787 12.904 -180 0 0 56.64 102.39 Z" class="st1"/>
				</g>
				<g id="shape685-7" transform="translate(24.1386,-20.2066)">
					<title>rect21</title>
					<path d="M0 114.04 a0.944904 0.94676 -180 0 0 0.944882 0.946738 L27.96 114.99 a0.944904 0.94676 -180 0 0 0.944882
								 -0.946738 L28.91 104.32 a0.944904 0.94676 -180 0 0 -0.944882 -0.946738 L0.94 103.38 a0.944904 0.94676
								 -180 0 0 -0.944882 0.946738 L0 114.04 Z" class="st2"/>
				</g>
				<g id="shape686-9" transform="translate(26.9921,-21.5825)">
					<title>rect23</title>
					<path d="M-0 114.04 a0.944904 0.94676 -180 0 0 0.944882 0.946738 L22.26 114.99 a0.944904 0.94676 -180 0 0 0.944882
								 -0.946738 L23.2 98.42 a0.944904 0.94676 -180 0 0 -0.944882 -0.946738 L0.94 97.47 a0.944904 0.94676
								 -180 0 0 -0.944882 0.946738 L0 114.04 Z" class="st3"/>
				</g>
				<g id="shape687-13" transform="translate(20.4945,-5.53842)">
					<title>path25</title>
					<path d="M1.89 93.84 L34.31 93.84 A1.88976 1.89348 0 0 1 36.2 95.74 L36.2 114.99 L0 114.99 L0 95.74 A1.88976
								 1.89348 0 0 1 1.89 93.84 Z" class="st4"/>
				</g>
				<g id="shape688-15" transform="translate(20.4945,-4.80312)">
					<title>rect27</title>
					<rect x="0" y="111.767" width="36.1984" height="3.21891" class="st5"/>
				</g>
				<g id="shape689-17" transform="translate(25.1874,-9.90288)">
					<title>rect29</title>
					<path d="M0 114.04 a0.944904 0.94676 -180 0 0 0.944882 0.946738 L25.86 114.99 a0.944904 0.94676 -180 0 0 0.944882
								 -0.946738 L26.8 112.17 a0.944904 0.94676 -180 0 0 -0.944882 -0.946738 L0.94 111.22 a0.944904 0.94676
								 -180 0 0 -0.944882 0.946738 L0 114.04 Z" class="st6"/>
				</g>
				<g id="shape690-19" transform="translate(49.6378,-19.7805)">
					<title>circle31</title>
					<ellipse cx="0.897638" cy="114.087" rx="0.897638" ry="0.899401" class="st7"/>
				</g>
				<g id="shape691-21" transform="translate(26.989,-2.41585E-13)">
					<title>path33</title>
					<path d="M0 101.97 L23.21 101.97 L23.21 114.04 a0.944882 0.946738 0 0 1 -0.944882 0.946738 L0.94 114.99 a0.944882
								 0.946738 0 0 1 -0.944882 -0.946738 L0 101.97 L0 101.97 Z" class="st8"/>
				</g>
			</g>
		</g>
	</g>
</svg>
